Newaita-dark/actions/16/im-user-online.svg

<?xml version="1.0" encoding="UTF-8"?>
<svg xmlns="http://www.w3.org/2000/svg" xmlns:xlink="http://www.w3.org/1999/xlink" width="16pt" height="16pt" viewBox="0 0 16 16" version="1.1">
<g id="surface1">
<path style=" stroke:none;fill-rule:nonzero;fill:rgb(14.901961%,65.098041%,60.392159%);fill-opacity:1;" d="M 5.59375 7.640625 Z M 5.59375 7.640625 C 4.300781 8.113281 3.078125 9.09375 2.734375 10.476562 C 2.585938 11.132812 2.667969 11.816406 2.644531 12.484375 C 2.652344 13.136719 2.632812 13.792969 2.65625 14.445312 C 2.722656 14.832031 3.136719 14.863281 3.449219 14.84375 L 12.734375 14.84375 C 13.160156 14.851562 13.269531 14.402344 13.230469 14.066406 C 13.222656 13.015625 13.246094 11.96875 13.21875 10.917969 C 13.09375 9.558594 12.046875 8.464844 10.863281 7.894531 C 10.621094 7.820312 10.355469 7.539062 10.117188 7.726562 C 9.714844 7.921875 9.285156 8.0625 8.847656 8.144531 L 9.242188 9.078125 C 9.757812 8.890625 10.054688 8.710938 10.433594 8.777344 C 11.394531 9.234375 12.28125 10.148438 12.238281 11.28125 L 12.238281 13.851562 L 3.636719 13.851562 C 3.644531 12.902344 3.628906 11.957031 3.648438 11.011719 C 3.75 9.945312 4.625 9.144531 5.550781 8.726562 C 5.859375 8.816406 6.449219 8.964844 6.613281 9.054688 L 7.03125 8.144531 C 6.527344 8.054688 6.042969 7.882812 5.59375 7.640625 Z M 5.59375 7.640625 "/>
<path style=" stroke:none;fill-rule:nonzero;fill:rgb(14.901961%,65.098041%,60.392159%);fill-opacity:1;" d="M 7.9375 0.753906 C 6.105469 0.753906 4.628906 2.226562 4.628906 4.058594 C 4.628906 5.894531 6.105469 7.367188 7.9375 7.367188 C 9.769531 7.367188 11.246094 5.894531 11.246094 4.058594 C 11.246094 2.226562 9.769531 0.753906 7.9375 0.753906 Z M 7.9375 1.777344 C 9.222656 1.777344 10.253906 2.8125 10.253906 4.09375 C 10.253906 5.375 9.222656 6.410156 7.9375 6.410156 C 6.65625 6.410156 5.621094 5.375 5.621094 4.09375 C 5.621094 2.8125 6.65625 1.777344 7.9375 1.777344 Z M 7.9375 1.777344 "/>
<path style=" stroke:none;fill-rule:nonzero;fill:rgb(74.117649%,74.117649%,74.117649%);fill-opacity:1;" d="M 7.9375 8.199219 C 7.730469 8.191406 7.574219 8.335938 7.441406 8.476562 C 7.222656 8.6875 7.246094 9.074219 7.480469 9.261719 C 7.550781 9.332031 7.621094 9.410156 7.714844 9.449219 C 7.511719 9.945312 7.476562 10.492188 7.449219 11.023438 C 7.429688 11.726562 7.453125 12.445312 7.652344 13.125 C 7.710938 13.273438 7.769531 13.519531 7.964844 13.519531 C 8.140625 13.441406 8.1875 13.226562 8.246094 13.0625 C 8.441406 12.328125 8.453125 11.558594 8.417969 10.800781 C 8.382812 10.34375 8.339844 9.875 8.160156 9.449219 C 8.300781 9.378906 8.402344 9.253906 8.5 9.140625 C 8.65625 8.917969 8.59375 8.597656 8.386719 8.433594 C 8.269531 8.300781 8.121094 8.195312 7.9375 8.199219 Z M 7.9375 8.199219 "/>
</g>
</svg>

<svg xmlns="http://www.w3.org/2000/svg" width="16pt" height="16pt" viewBox="0 0 16 16"><path d="M5.594 7.64zm0 0c-1.293.473-2.516 1.454-2.86 2.837-.148.656-.066 1.34-.09 2.007.008.653-.011 1.309.012 1.961.067.387.48.418.793.399h9.285c.426.008.536-.442.496-.778-.007-1.05.016-2.097-.011-3.148-.125-1.36-1.172-2.453-2.356-3.023-.242-.075-.508-.356-.746-.168a5.043 5.043 0 0 1-1.27.418l.395.933c.516-.187.813-.367 1.192-.3.96.456 1.847 1.37 1.804 2.503v2.57H3.637c.008-.949-.008-1.894.011-2.84.102-1.066.977-1.866 1.903-2.284.308.09.898.238 1.062.328l.418-.91a4.809 4.809 0 0 1-1.437-.504zm0 0M7.938.754a3.3 3.3 0 0 0-3.31 3.305 3.3 3.3 0 0 0 3.31 3.308 3.3 3.3 0 0 0 3.308-3.308A3.3 3.3 0 0 0 7.937.754zm0 1.023a2.311 2.311 0 0 1 2.316 2.317A2.311 2.311 0 0 1 7.938 6.41 2.314 2.314 0 0 1 5.62 4.094a2.314 2.314 0 0 1 2.316-2.317zm0 0" fill="#26a69a"/><path d="M7.938 8.2c-.208-.009-.364.136-.497.277a.54.54 0 0 0 .04.785c.07.07.14.148.234.187-.203.496-.238 1.043-.266 1.574-.02.704.004 1.422.203 2.102.059.148.118.395.313.395.176-.079.223-.293.281-.457.195-.735.207-1.504.172-2.262-.035-.457-.078-.926-.258-1.352.14-.07.242-.195.34-.308a.533.533 0 0 0-.113-.707c-.117-.133-.266-.239-.45-.235zm0 0" fill="#bdbdbd"/></svg>
